svgs/sharp-solid/film.svg

<svg xmlns="http://www.w3.org/2000/svg" viewBox="0 0 512 512"><!--! Font Awesome Pro 6.6.0 by @fontawesome - https://fontawesome.com License - https://fontawesome.com/license (Commercial License) Copyright 2024 Fonticons, Inc. --><path d="M0 32l512 0 0 448L0 480 0 32zM48 352l0 64 64 0 0-64-64 0zm416 0l-64 0 0 64 64 0 0-64zM48 224l0 64 64 0 0-64-64 0zm416 0l-64 0 0 64 64 0 0-64zM48 96l0 64 64 0 0-64L48 96zm416 0l-64 0 0 64 64 0 0-64zM160 96l0 128 192 0 0-128L160 96zM352 288l-192 0 0 128 192 0 0-128z"/></svg>

<svg xmlns="http://www.w3.org/2000/svg" viewBox="0 0 512 512"><!--! Font Awesome Pro 6.4.2 by @fontawesome - https://fontawesome.com License - https://fontawesome.com/license (Commercial License) Copyright 2023 Fonticons, Inc. --><path d="M0 32H512V480H0V32zM48 352v64h64V352H48zm416 0H400v64h64V352zM48 224v64h64V224H48zm416 0H400v64h64V224zM48 96v64h64V96H48zm416 0H400v64h64V96zM160 96V224H352V96H160zM352 288H160V416H352V288z"/></svg>
